X: 43
T: Si j'ay perdu mon amy
N: Derived from Ort3008-Si_jay_perdu_mon_amy.krn
C: Marbrianus de Orto
%%abc-version 2.0
%%abcx-abcm2ps-target-version 5.9.1 (29 Sep 2008)
%%abc-creator hum2abc beta
%%abcx-conversion-date 2019/02/17 07:28:38
%%abc-edited-by Jesse Rodin
%%abc-edited-by Jesse Rodin 8/6/2013
%%abcx-initial-encoding-date 2013/08/06/
%%humdrum-veritas 445576111
%%humdrum-veritas-data 829896022
%%linebreak <none>
%%barnumbers 0
L: 1/4
M: 2/1
Q: 1/2=120
%%staves [1 2 3 4]
V: 1 clef=treble
V: 2 clef=treble-8
V: 3 clef=treble-8
V: 4 clef=bass
K: F
[V:1] z8 | 
[V:2] z8 | 
[V:3] z8 | 
[V:4] D,4D,4 | 
[V:1] z8 | 
[V:2] z8 | 
[V:3] z8 | 
[V:4] C,4F,4- | 
[V:1] z8 | 
[V:2] z8 | 
[V:3] G4G4 | 
[V:4] F,2E,D,E,4 | 
[V:1] z8 | 
[V:2] z8 | 
[V:3] F4B4- | 
[V:4] F,3E,D,C,_E,2- | 
[V:1] z8 | 
[V:2] z8 | 
[V:3] B2AGA4 | 
[V:4] E,D,C,B,,C,4 | 
[V:1] z8 | 
[V:2] d4d4 | 
[V:3] B4z2B2- | 
[V:4] B,,8 | 
[V:1] z8 | 
[V:2] c4f4- | 
[V:3] B2A2BAGF | 
[V:4] F,4B,,4 | 
[V:1] G4G4 | 
[V:2] f2ede4 | 
[V:3] c4c4 | 
[V:4] z8 | 
[V:1] F4B4- | 
[V:2] f8- | 
[V:3] d6B2 | 
[V:4] B,,8 | 
[V:1] B2AGA4 | 
[V:2] f8 | 
[V:3] c8 | 
[V:4] F,8 | 
[V:1] B8 | 
[V:2] z4g4- | 
[V:3] B8 | 
[V:4] G,6F,2 | 
[V:1] z8 | 
[V:2] g2f2e4- | 
[V:3] z4c4- | 
[V:4] E,2D,2C,4- | 
[V:1] c6B2 | 
[V:2] e2d2c4- | 
[V:3] c2B2A4- | 
[V:4] C,4F,4- | 
[V:1] A4A3G | 
[V:2] c2c2fedc | 
[V:3] A2G2F2G2 | 
[V:4] F,2E,2D,2E,2 | 
[V:1] F2G2A2B2 | 
[V:2] d4d4 | 
[V:3] A2B2A2G2 | 
[V:4] D,2G,,2z2G,,2 | 
[V:1] A2G4^F2 | 
[V:2] fedcd4 | 
[V:3] F2G2A4 | 
[V:4] D,2_E,2D,4 | 
[V:1] G4z4 | 
[V:2] z2_e3dB2 | 
[V:3] G4G4 | 
[V:4] B,,2C,3D,_E,2- | 
[V:1] z8 | 
[V:2] c2d2G4 | 
[V:3] F4B4- | 
[V:4] E,2D,2_E,4 | 
[V:1] z8 | 
[V:2] c4c4 | 
[V:3] B2AGA4 | 
[V:4] F,8 | 
[V:1] z8 | 
[V:2] B4_e4- | 
[V:3] B4c4- | 
[V:4] G,4A,4 | 
[V:1] z8 | 
[V:2] e2dcd4 | 
[V:3] c2B2A4 | 
[V:4] F,8 | 
[V:1] G4G4 | 
[V:2] _e8 | 
[V:3] B4c4 | 
[V:4] _E,8 | 
[V:1] F4B4- | 
[V:2] f8- | 
[V:3] d6cB | 
[V:4] D,4B,,4 | 
[V:1] B2AGA4 | 
[V:2] f8 | 
[V:3] c8 | 
[V:4] F,8 | 
[V:1] B8 | 
[V:2] z4g4- | 
[V:3] B8 | 
[V:4] G,6F,2 | 
[V:1] z8 | 
[V:2] g2f2e4- | 
[V:3] z4c4- | 
[V:4] E,2D,2C,4- | 
[V:1] c6B2 | 
[V:2] e2d2c4- | 
[V:3] c2B2A4- | 
[V:4] C,4F,4- | 
[V:1] A6G2 | 
[V:2] c2c2fedc | 
[V:3] A2G2F2G2 | 
[V:4] F,2E,2D,2E,2 | 
[V:1] F2G2A2B2 | 
[V:2] d4d4 | 
[V:3] A2B2A2G2 | 
[V:4] D,2G,,2z2G,,2 | 
[V:1] A4G4- | 
[V:2] f3ed2c2 | 
[V:3] F4G4 | 
[V:4] D,4_E,4 | 
[V:1] G2^FEF4 | 
[V:2] d8 | 
[V:3] A8 | 
[V:4] D,8 | 
[V:1] G8 | 
[V:2] d8- | 
[V:3] G8 | 
[V:4] G,,4z4 | 
[V:1] z8 | 
[V:2] d8 | 
[V:3] z8 | 
[V:4] G,6A,B, | 
[V:1] z8 | 
[V:2] z4c4- | 
[V:3] z8 | 
[V:4] A,6G,F, | 
[V:1] z8 | 
[V:2] c4c4 | 
[V:3] G6G2 | 
[V:4] E,2D,2E,4 | 
[V:1] z8 | 
[V:2] d2DEFGAB | 
[V:3] A6GF | 
[V:4] D,8 | 
[V:1] G6G2 | 
[V:2] c2d4^c2 | 
[V:3] E2D2E4 | 
[V:4] z8 | 
[V:1] A6GF | 
[V:2] d8 | 
[V:3] D3EFGAB | 
[V:4] z8 | 
[V:1] E2D2E4 | 
[V:2] z8 | 
[V:3] c2d4^c2 | 
[V:4] A,,4A,,4 | 
[V:1] D8 | 
[V:2] z8 | 
[V:3] d6cB | 
[V:4] z2B,,3C,D,E, | 
[V:1] z8 | 
[V:2] c6BA | 
[V:3] A2G2A4 | 
[V:4] F,2G,4F,2 | 
[V:1] G6G2 | 
[V:2] e2d4c2 | 
[V:3] G4z4 | 
[V:4] G,4E,4 | 
[V:1] A6G2 | 
[V:2] f3ec4 | 
[V:3] z2D2F2G2 | 
[V:4] D,2F,4E,2 | 
[V:1] F4E4 | 
[V:2] d4z2c2 | 
[V:3] A2B2c4 | 
[V:4] D,4A,,4 | 
[V:1] D2F4ED | 
[V:2] G2c4B2 | 
[V:3] B2A4GF | 
[V:4] z2F,,4G,,2 | 
[V:1] C2D4^C2 | 
[V:2] A2G2A4 | 
[V:3] E2D2E4 | 
[V:4] A,,2B,,2A,,4 | 
[V:1] D8 | 
[V:2] z4F4- | 
[V:3] D8 | 
[V:4] B,,6B,,2 | 
[V:1] z8 | 
[V:2] F2F2F3G | 
[V:3] z8 | 
[V:4] B,,4D,4 | 
[V:1] z8 | 
[V:2] ABc4B2 | 
[V:3] z8 | 
[V:4] C,3B,,A,,2G,,2 | 
[V:1] z8 | 
[V:2] cBAGG2^F2 | 
[V:3] z8 | 
[V:4] A,,4A,,4 | 
[V:1] z8 | 
[V:2] G4z4 | 
[V:3] B6B2 | 
[V:4] G,,2G,3F,_E,2- | 
[V:1] B6B2 | 
[V:2] z4F2G2- | 
[V:3] B4d4- | 
[V:4] E,2D,C,B,,4 | 
[V:1] B4d4 | 
[V:2] G2D4F2- | 
[V:3] d2B4AG | 
[V:4] G,,4B,,C,D,E, | 
[V:1] c3BA2G2 | 
[V:2] FGABc3B | 
[V:3] A4z4 | 
[V:4] F,4z2C,2- | 
[V:1] A4z4 | 
[V:2] AGc2F2G2 | 
[V:3] z4c2B2 | 
[V:4] C,B,,A,,4G,,2 | 
[V:1] c2B2A2G2 | 
[V:2] A2D2F2G2 | 
[V:3] A2G2c2B2 | 
[V:4] F,,2G,,2z2G,,2 | 
[V:1] c2B2A2G2 | 
[V:2] A2d3cc2 | 
[V:3] A2G2F2G2 | 
[V:4] F,,2G,,2D,2_E,2 | 
[V:1] F2G2A2B2 | 
[V:2] d4z4 | 
[V:3] A2B2A2G2- | 
[V:4] D,2G,,2F,,2G,,2 | 
[V:1] A4G4 | 
[V:2] d4B4- | 
[V:3] G2^F2G4 | 
[V:4] D,4G,,2z2 | 
[V:1] z8 | 
[V:2] B4c3B | 
[V:3] z8 | 
[V:4] G,2G,F,E,D,C,2- | 
[V:1] z8 | 
[V:2] A2G2cBAG | 
[V:3] z8 | 
[V:4] C,2_E,3D,C,B,, | 
[V:1] z8 | 
[V:2] F2G2G2^F2 | 
[V:3] z8 | 
[V:4] A,,2G,,2A,,4 | 
[V:1] z8 | 
[V:2] G4z4 | 
[V:3] z4B4- | 
[V:4] G,,4G,4- | 
[V:1] z4B4- | 
[V:2] d8 | 
[V:3] B2B2B4 | 
[V:4] G,4G,4 | 
[V:1] B2B2B4 | 
[V:2] B4G4- | 
[V:3] d6B2- | 
[V:4] G,4z4 | 
[V:1] d4c3B | 
[V:2] G4z4 | 
[V:3] B2AGA4 | 
[V:4] z4F,4- | 
[V:1] A2G2A4 | 
[V:2] z8 | 
[V:3] z4c3B | 
[V:4] F,2E,2F,4- | 
[V:1] c2B2A2G2 | 
[V:2] z8 | 
[V:3] A2G2z2cB | 
[V:4] F,2G,2F,2E,D, | 
[V:1] cBAGcBAG | 
[V:2] gfede2f2- | 
[V:3] AGcBAGFG | 
[V:4] C,4z2D,2- | 
[V:1] F2G2G2^F2 | 
[V:2] fdd4d2 | 
[V:3] A2B2A4 | 
[V:4] D,2G,,2D,4 | 
[V:1] G8- | 
[V:2] B2_edcB_ed | 
[V:3] G8- | 
[V:4] _E,D,C,B,,E,D,C,B,, | 
[V:1] G8 |]  
[V:2] cBc2d4 |]  
[V:3] G8 |]  
[V:4] C,2C,2G,,4 |]  



